Suru++-Ubuntu/apps/symbolic/de.haeckerfelix.Radio-symbolic.svg

<svg width="16" height="16" version="1.1" xmlns="http://www.w3.org/2000/svg">
 <g transform="translate(0,-1036.3622)">
  <path transform="translate(0,1036.3622)" d="m3.75 1.2070312c-0.1278096 0-0.2555813 0.0485501-0.3535156 0.1464844-0.1958686 0.1958686-0.1958686 0.5111627 0 0.7070313l2.9394531 2.9394531h-5.3359375c-0.554 0-1 0.446-1 1v7c0 0.554 0.446 1 1 1h14c0.554 0 1-0.446 1-1v-7c0-0.554-0.446-1-1-1h-5.59375l2.939453-2.9394531c0.195869-0.1958686 0.195869-0.5111627 0-0.7070313-0.195868-0.1958686-0.511163-0.1958686-0.707031 0l-3.6464845 3.6464844h-0.2402344l-3.6484375-3.6464844c-0.0979343-0.0979343-0.225706-0.1464844-0.3535156-0.1464844zm0.75 5.7929688c1.3807119 0 2.5 1.1193 2.5 2.5s-1.1192881 2.5-2.5 2.5c-1.3807118 0-2.5-1.1193-2.5-2.5s1.1192882-2.5 2.5-2.5zm5 1h4c0.277 0 0.5 0.223 0.5 0.5s-0.223 0.5-0.5 0.5h-4c-0.277 0-0.5-0.223-0.5-0.5s0.223-0.5 0.5-0.5zm0 2h4c0.277 0 0.5 0.223 0.5 0.5s-0.223 0.5-0.5 0.5h-4c-0.277 0-0.5-0.223-0.5-0.5s0.223-0.5 0.5-0.5z" style="fill:#808080"/>
 </g>
</svg>

<svg xmlns="http://www.w3.org/2000/svg" width="16" height="16" version="1.1">
 <g transform="translate(0,-1036.3622)">
  <path style="fill:#808080" d="M 3.75 1.2070312 C 3.6221904 1.2070312 3.4944187 1.2555813 3.3964844 1.3535156 C 3.2006158 1.5493842 3.2006158 1.8646783 3.3964844 2.0605469 L 6.3359375 5 L 1 5 C 0.446 5 0 5.446 0 6 L 0 13 C 0 13.554 0.446 14 1 14 L 15 14 C 15.554 14 16 13.554 16 13 L 16 6 C 16 5.446 15.554 5 15 5 L 9.40625 5 L 12.345703 2.0605469 C 12.541572 1.8646783 12.541572 1.5493842 12.345703 1.3535156 C 12.149835 1.157647 11.83454 1.157647 11.638672 1.3535156 L 7.9921875 5 L 7.7519531 5 L 4.1035156 1.3535156 C 4.0055813 1.2555813 3.8778096 1.2070312 3.75 1.2070312 z M 4.5 7 C 5.8807119 7 7 8.1193 7 9.5 C 7 10.8807 5.8807119 12 4.5 12 C 3.1192882 12 2 10.8807 2 9.5 C 2 8.1193 3.1192882 7 4.5 7 z M 9.5 8 L 13.5 8 C 13.777 8 14 8.223 14 8.5 C 14 8.777 13.777 9 13.5 9 L 9.5 9 C 9.223 9 9 8.777 9 8.5 C 9 8.223 9.223 8 9.5 8 z M 9.5 10 L 13.5 10 C 13.777 10 14 10.223 14 10.5 C 14 10.777 13.777 11 13.5 11 L 9.5 11 C 9.223 11 9 10.777 9 10.5 C 9 10.223 9.223 10 9.5 10 z" transform="translate(0,1036.3622)"/>
 </g>
</svg>
